svg/300/sharp/back_to_tab-fill.svg

<svg xmlns="http://www.w3.org/2000/svg" width="48" height="48" viewBox="0 -960 960 960"><path d="M362.694-485.076 145.385-702v174.307h-45.384v-252.306h252.306v45.384H177l218.309 217.309-32.615 32.23ZM100.001-180.001v-267.306h45.384v221.922h329.999v45.384H100.001Zm714.614-264.615v-289.999H432.693v-45.384h427.306v335.383h-45.384Zm45.384 73.078v191.537H548.462v-191.537h311.537Z"/></svg>

<svg xmlns="http://www.w3.org/2000/svg" width="48" height="48" viewBox="0 -960 960 960"><path d="M362.69-485.08 145.39-702v174.31H100V-780h252.31v45.39H177l218.31 217.3-32.62 32.23ZM100-180v-267.31h45.39v221.92h329.99V-180H100Zm714.61-264.62v-289.99H432.69V-780H860v335.38h-45.39ZM860-371.54V-180H548.46v-191.54H860Z"/></svg>
